public/icons/Attach.svg

<svg width="16" height="10" viewBox="0 0 16 10" fill="none" xmlns="http://www.w3.org/2000/svg">
<path fill-rule="evenodd" clip-rule="evenodd" d="M12 0C14.2091 0 16 1.59898 16 3.57143C16 5.54387 14.2091 7.14286 12 7.14286H5.6C4.27452 7.14286 3.2 6.18347 3.2 5C3.2 3.81653 4.27452 2.85714 5.6 2.85714H12C12.4418 2.85714 12.8 3.17694 12.8 3.57143C12.8 3.96592 12.4418 4.28571 12 4.28571H5.6L5.5067 4.29052C5.10883 4.33178 4.8 4.63369 4.8 5C4.8 5.36631 5.10883 5.66822 5.5067 5.70948L5.6 5.71429H12C13.3255 5.71429 14.4 4.7549 14.4 3.57143C14.4 2.38796 13.3255 1.42857 12 1.42857H5.6C3.39086 1.42857 1.6 3.02755 1.6 5C1.6 6.92054 3.29785 8.48701 5.42649 8.56813L5.6 8.57143H12C12.4418 8.57143 12.8 8.89123 12.8 9.28571C12.8 9.6802 12.4418 10 12 10H5.6C2.50721 10 0 7.76142 0 5C0 2.23858 2.50721 0 5.6 0H12Z" fill="#667085"/>
</svg>

<svg width="16" height="10" fill="none" xmlns="http://www.w3.org/2000/svg"><path fill-rule="evenodd" clip-rule="evenodd" d="M12 0c2.21 0 4 1.599 4 3.571 0 1.973-1.79 3.572-4 3.572H5.6c-1.325 0-2.4-.96-2.4-2.143 0-1.183 1.075-2.143 2.4-2.143H12c.442 0 .8.32.8.714 0 .395-.358.715-.8.715H5.6l-.093.005c-.398.04-.707.343-.707.709 0 .366.309.668.707.71l.093.004H12c1.325 0 2.4-.96 2.4-2.143 0-1.183-1.075-2.142-2.4-2.142H5.6c-2.21 0-4 1.599-4 3.571 0 1.92 1.698 3.487 3.826 3.568l.174.003H12c.442 0 .8.32.8.715 0 .394-.358.714-.8.714H5.6C2.507 10 0 7.761 0 5s2.507-5 5.6-5H12Z" fill="#667085"/></svg>
